Simply black circles/scalable/status/aptdaemon-working.svg

<?xml version="1.0" encoding="UTF-8" standalone="no"?>
<svg
   xmlns:dc="http://purl.org/dc/elements/1.1/"
   xmlns:cc="http://creativecommons.org/ns#"
   xmlns:rdf="http://www.w3.org/1999/02/22-rdf-syntax-ns#"
   xmlns:svg="http://www.w3.org/2000/svg"
   xmlns="http://www.w3.org/2000/svg"
   xmlns:sodipodi="http://sodipodi.sourceforge.net/DTD/sodipodi-0.dtd"
   xmlns:inkscape="http://www.inkscape.org/namespaces/inkscape"
   height="24"
   viewBox="0 0 24 24"
   width="24"
   version="1.1"
   id="svg4"
   sodipodi:docname="aptdaemon-working.svg"
   inkscape:version="0.92.3 (2405546, 2018-03-11)"
   style="fill:#000000">
  <metadata
     id="metadata10">
    <rdf:RDF>
      <cc:Work
         rdf:about="">
        <dc:format>image/svg+xml</dc:format>
        <dc:type
           rdf:resource="http://purl.org/dc/dcmitype/StillImage" />
        <dc:title></dc:title>
      </cc:Work>
    </rdf:RDF>
  </metadata>
  <defs
     id="defs8" />
  <sodipodi:namedview
     pagecolor="#ffffff"
     bordercolor="#666666"
     borderopacity="1"
     objecttolerance="10"
     gridtolerance="10"
     guidetolerance="10"
     inkscape:pageopacity="0"
     inkscape:pageshadow="2"
     inkscape:window-width="1366"
     inkscape:window-height="719"
     id="namedview6"
     showgrid="false"
     inkscape:zoom="22.166667"
     inkscape:cx="2.6390979"
     inkscape:cy="11.819549"
     inkscape:window-x="0"
     inkscape:window-y="25"
     inkscape:window-maximized="1"
     inkscape:current-layer="svg4"
     showguides="true"
     inkscape:guide-bbox="true" />
  <path
     style="opacity:1;fill:#808080;fill-opacity:0.99065423;fill-rule:nonzero;stroke:none;stroke-width:0.13580415;stroke-linecap:butt;stroke-linejoin:round;stroke-miterlimit:4;stroke-dasharray:none;stroke-dashoffset:0;stroke-opacity:1;paint-order:markers fill stroke"
     d="M 12 1.1347656 A 10.818297 10.86433 0 0 0 1.1816406 12 A 10.818297 10.86433 0 0 0 12 22.865234 A 10.818297 10.86433 0 0 0 22.818359 12 A 10.818297 10.86433 0 0 0 12 1.1347656 z M 12 3.0292969 A 9.1218935 9.1218935 0 0 1 12.837891 3.0703125 L 13.359375 5.7539062 A 6.426847 6.426847 0 0 1 14.601562 6.1523438 L 16.566406 4.2714844 C 17.063638 4.5662875 17.496472 4.9306543 17.925781 5.3125 L 16.765625 7.7539062 A 6.4806712 6.4806712 0 0 1 17.527344 8.796875 L 20.208984 8.4355469 A 8.8527738 8.8527738 0 0 1 20.730469 10.078125 L 18.367188 11.359375 C 18.388978 11.574657 18.40625 11.778142 18.40625 12 C 18.40625 12.221745 18.388997 12.42557 18.367188 12.640625 L 20.730469 13.921875 A 8.8553367 8.8553367 0 0 1 20.208984 15.564453 L 17.527344 15.205078 C 17.309484 15.576719 17.050121 15.925148 16.765625 16.244141 L 17.925781 18.689453 C 17.496472 19.071374 17.063638 19.435666 16.566406 19.730469 L 14.601562 17.845703 C 14.2107 18.02164 13.789358 18.154697 13.361328 18.248047 L 12.839844 20.931641 A 9.1218935 9.1218935 0 0 1 11.158203 20.931641 L 10.638672 18.248047 C 10.209361 18.154126 9.7886314 18.021073 9.3964844 17.845703 L 7.4335938 19.728516 C 6.9350798 19.43375 6.5028576 19.071374 6.0722656 18.689453 L 7.2324219 16.244141 C 6.9479229 15.925073 6.6905162 15.576606 6.4726562 15.205078 L 3.7890625 15.564453 C 3.5609525 15.040308 3.3938402 14.49213 3.2695312 13.921875 L 5.6308594 12.640625 C 5.6090894 12.425343 5.59375 12.221858 5.59375 12 A 6.184639 6.184639 0 0 1 5.6308594 11.359375 L 3.2695312 10.078125 A 8.8553367 8.8553367 0 0 1 3.7890625 8.4375 L 6.4726562 8.7988281 A 6.4806712 6.4806712 0 0 1 7.2324219 7.7558594 L 6.0722656 5.3125 C 6.5028576 4.9305787 6.9350797 4.5682402 7.4335938 4.2734375 L 9.3964844 6.1523438 A 6.4230025 6.4230025 0 0 1 10.638672 5.7539062 L 11.158203 3.0703125 C 11.435012 3.0480125 11.718066 3.0292969 12 3.0292969 z M 12 8.15625 A 3.8447265 3.8447265 0 0 0 12 15.845703 A 3.8447266 3.8447266 0 0 0 12 8.15625 z "
     id="path1016" />
</svg>

<svg xmlns="http://www.w3.org/2000/svg" height="24" width="24"><path d="M12 1.135A10.818 10.864 0 0 0 1.182 12 10.818 10.864 0 0 0 12 22.865 10.818 10.864 0 0 0 22.818 12 10.818 10.864 0 0 0 12 1.135zm0 1.894a9.122 9.122 0 0 1 .838.041l.521 2.684a6.427 6.427 0 0 1 1.243.398l1.964-1.88c.498.294.93.659 1.36 1.04l-1.16 2.442a6.48 6.48 0 0 1 .761 1.043l2.682-.361a8.853 8.853 0 0 1 .521 1.642l-2.363 1.281c.022.216.04.42.04.641 0 .222-.018.426-.04.64l2.363 1.282a8.855 8.855 0 0 1-.521 1.642l-2.682-.359c-.218.372-.477.72-.761 1.04l1.16 2.444c-.43.382-.862.747-1.36 1.041l-1.964-1.884c-.391.176-.813.309-1.24.402l-.522 2.684a9.122 9.122 0 0 1-1.682 0l-.52-2.684a6.406 6.406 0 0 1-1.242-.402l-1.962 1.883c-.499-.295-.931-.658-1.362-1.04l1.16-2.445a6.532 6.532 0 0 1-.76-1.039l-2.683.36a8.786 8.786 0 0 1-.52-1.643l2.362-1.281A6.21 6.21 0 0 1 5.594 12a6.185 6.185 0 0 1 .037-.64L3.27 10.077a8.855 8.855 0 0 1 .52-1.64l2.683.36a6.48 6.48 0 0 1 .76-1.042l-1.16-2.444c.43-.381.862-.744 1.36-1.039l1.963 1.88a6.423 6.423 0 0 1 1.243-.4l.52-2.683c.276-.022.56-.04.841-.04zm0 5.127a3.845 3.845 0 0 0 0 7.69 3.845 3.845 0 0 0 0-7.69z" fill="gray" fill-opacity=".991" paint-order="markers fill stroke"/></svg>
